X: 2252
T: Honb.le Con.l W.m Wemyss's Reel
%R: reel
B: Niel Gow & Sons "A Second Collection of Strathspey Reels, etc." v.2 p.25 #2
Z: 2022 John Chambers <jc:trillian.mit.edu>
M: C
L: 1/8
K: F
% - - - - - - - - - -
V: 1 staves=2
C |\
TF2AF ABcf | A<Fc<F EGGA | TF2AF (ABc)A | dfeg fFF :| g | (a/g/f/e/) f.c (ABc).f | A>Fc>F EGGg |
(Tfef).c (ABcA) | dfeg fFFg || afge fdTc>B | A<Fc>F EGGB | AFcA Bcde | fcdB AFF |]
% - - - - - - - - - -
% Voice 2 preserves the staff layout in the book.
V: 2 clef=bass middle=d
z | f2f2 f2f2 | f2f2 c'2c2 | A2F2 f2f2 | b2c'2 f2f :| z | f2f2 f2f2 | f2f2 c'2c2 |
f2f2 f2f2 | b2c'2 f2fz || f2c2 f2f2 | f2a2 c'2c2 | f2f2 b2b2 | c'2c2 f2f |]


